app/assets/images/icons/active/grid-list.svg

<svg width="32" height="232" viewBox="0 0 32 232" xmlns="http://www.w3.org/2000/svg" xmlns:sketch="http://www.bohemiancoding.com/sketch/ns"><title>grid-list</title><g sketch:type="MSPage" fill="none"><path d="M13.127 135.522h-7.699c-1.066 0-1.928-.861-1.928-1.923v-7.674c0-1.061.862-1.925 1.928-1.925h7.699c1.065 0 1.926.864 1.926 1.925v7.674c0 1.062-.861 1.923-1.926 1.923zm0 13.478h-7.699c-1.066 0-1.928-.861-1.928-1.924v-7.672c0-1.064.862-1.924 1.928-1.924h7.699c1.065 0 1.926.86 1.926 1.924v7.672c0 1.063-.861 1.924-1.926 1.924zm13.463-21.059h-7.761c-1.071 0-1.942-.868-1.942-1.94 0-1.071.871-1.938 1.942-1.938h7.761c1.071 0 1.94.867 1.94 1.938 0 1.072-.869 1.94-1.94 1.94zm-7.761 2.86h7.761c1.071 0 1.94.867 1.94 1.94 0 1.07-.869 1.939-1.94 1.939h-7.761c-1.071 0-1.942-.869-1.942-1.939 0-1.073.871-1.94 1.942-1.94zm7.761 10.617h-7.761c-1.071 0-1.942-.869-1.942-1.94s.871-1.937 1.942-1.937h7.761c1.071 0 1.94.866 1.94 1.937 0 1.071-.869 1.94-1.94 1.94zm0 6.74h-7.761c-1.071 0-1.942-.868-1.942-1.941 0-1.07.871-1.937 1.942-1.937h7.761c1.071 0 1.94.867 1.94 1.937 0 1.073-.869 1.941-1.94 1.941zm0 0" fill="#206FAC" sketch:type="MSShapeGroup"/><path d="M13.127 95.522h-7.699c-1.066 0-1.928-.861-1.928-1.923v-7.674c0-1.061.862-1.925 1.928-1.925h7.699c1.065 0 1.926.864 1.926 1.925v7.674c0 1.062-.861 1.923-1.926 1.923zm0 13.478h-7.699c-1.066 0-1.928-.861-1.928-1.924v-7.672c0-1.064.862-1.924 1.928-1.924h7.699c1.065 0 1.926.86 1.926 1.924v7.672c0 1.063-.861 1.924-1.926 1.924zm13.463-21.059h-7.761c-1.071 0-1.942-.868-1.942-1.94 0-1.071.871-1.938 1.942-1.938h7.761c1.071 0 1.94.867 1.94 1.938 0 1.072-.869 1.94-1.94 1.94zm-7.761 2.86h7.761c1.071 0 1.94.867 1.94 1.94 0 1.07-.869 1.939-1.94 1.939h-7.761c-1.071 0-1.942-.869-1.942-1.939 0-1.073.871-1.94 1.942-1.94zm7.761 10.617h-7.761c-1.071 0-1.942-.869-1.942-1.94s.871-1.937 1.942-1.937h7.761c1.071 0 1.94.866 1.94 1.937 0 1.071-.869 1.94-1.94 1.94zm0 6.74h-7.761c-1.071 0-1.942-.868-1.942-1.941 0-1.07.871-1.937 1.942-1.937h7.761c1.071 0 1.94.867 1.94 1.937 0 1.073-.869 1.941-1.94 1.941zm0 0" fill="#fff" sketch:type="MSShapeGroup"/><path d="M13.127 55.522h-7.699c-1.066 0-1.928-.861-1.928-1.923v-7.674c0-1.061.862-1.925 1.928-1.925h7.699c1.065 0 1.926.864 1.926 1.925v7.674c0 1.062-.861 1.923-1.926 1.923zm0 13.478h-7.699c-1.066 0-1.928-.861-1.928-1.924v-7.672c0-1.064.862-1.924 1.928-1.924h7.699c1.065 0 1.926.86 1.926 1.924v7.672c0 1.063-.861 1.924-1.926 1.924zm13.463-21.059h-7.761c-1.071 0-1.942-.868-1.942-1.94 0-1.071.871-1.938 1.942-1.938h7.761c1.071 0 1.94.867 1.94 1.938 0 1.072-.869 1.94-1.94 1.94zm-7.761 2.86h7.761c1.071 0 1.94.867 1.94 1.94 0 1.07-.869 1.939-1.94 1.939h-7.761c-1.071 0-1.942-.869-1.942-1.939 0-1.073.871-1.94 1.942-1.94zm7.761 10.617h-7.761c-1.071 0-1.942-.869-1.942-1.94s.871-1.937 1.942-1.937h7.761c1.071 0 1.94.866 1.94 1.937 0 1.071-.869 1.94-1.94 1.94zm0 6.74h-7.761c-1.071 0-1.942-.868-1.942-1.941 0-1.07.871-1.937 1.942-1.937h7.761c1.071 0 1.94.867 1.94 1.937 0 1.073-.869 1.941-1.94 1.941zm0 0" fill="#67737B" sketch:type="MSShapeGroup"/><path d="M13.127 15.522h-7.699c-1.066 0-1.928-.861-1.928-1.923v-7.674c0-1.061.862-1.925 1.928-1.925h7.699c1.065 0 1.926.864 1.926 1.925v7.674c0 1.062-.861 1.923-1.926 1.923zm0 13.478h-7.699c-1.066 0-1.928-.861-1.928-1.924v-7.672c0-1.064.862-1.924 1.928-1.924h7.699c1.065 0 1.926.86 1.926 1.924v7.672c0 1.063-.861 1.924-1.926 1.924zm13.463-21.059h-7.761c-1.071 0-1.942-.868-1.942-1.94 0-1.071.871-1.938 1.942-1.938h7.761c1.071 0 1.94.867 1.94 1.938 0 1.072-.869 1.94-1.94 1.94zm-7.761 2.86h7.761c1.071 0 1.94.867 1.94 1.94 0 1.07-.869 1.939-1.94 1.939h-7.761c-1.071 0-1.942-.869-1.942-1.939 0-1.073.871-1.94 1.942-1.94zm7.761 10.617h-7.761c-1.071 0-1.942-.869-1.942-1.94s.871-1.937 1.942-1.937h7.761c1.071 0 1.94.866 1.94 1.937 0 1.071-.869 1.94-1.94 1.94zm0 6.74h-7.761c-1.071 0-1.942-.868-1.942-1.941 0-1.07.871-1.937 1.942-1.937h7.761c1.071 0 1.94.867 1.94 1.937 0 1.073-.869 1.941-1.94 1.941zm0 0" fill="#3A434E" sketch:type="MSShapeGroup"/></g></svg>

<?xml version="1.0" encoding="UTF-8" standalone="no"?>
<svg width="32px" height="232px" viewBox="0 0 32 232" version="1.1" xmlns="http://www.w3.org/2000/svg" xmlns:xlink="http://www.w3.org/1999/xlink" xmlns:sketch="http://www.bohemiancoding.com/sketch/ns">
    <title>grid-list</title>
    <description>Created with Sketch (http://www.bohemiancoding.com/sketch)</description>
    <defs></defs>
    <g id="Actions" stroke="none" stroke-width="1" fill="none" fill-rule="evenodd" sketch:type="MSPage">
        <path d="M13.127,135.522 L5.428,135.522 C4.362,135.522 3.5,134.661 3.5,133.599 L3.5,125.925 C3.5,124.864 4.362,124 5.428,124 L13.127,124 C14.192,124 15.053,124.864 15.053,125.925 L15.053,133.599 C15.053,134.661 14.192,135.522 13.127,135.522 L13.127,135.522 L13.127,135.522 L13.127,135.522 Z M13.127,149 L5.428,149 C4.362,149 3.5,148.139 3.5,147.076 L3.5,139.404 C3.5,138.34 4.362,137.48 5.428,137.48 L13.127,137.48 C14.192,137.48 15.053,138.34 15.053,139.404 L15.053,147.076 C15.053,148.139 14.192,149 13.127,149 Z M26.59,127.941 L18.829,127.941 C17.758,127.941 16.887,127.073 16.887,126.001 C16.887,124.93 17.758,124.063 18.829,124.063 L26.59,124.063 C27.661,124.063 28.53,124.93 28.53,126.001 C28.53,127.073 27.661,127.941 26.59,127.941 Z M18.829,130.801 L26.59,130.801 C27.661,130.801 28.53,131.668 28.53,132.741 C28.53,133.811 27.661,134.68 26.59,134.68 L18.829,134.68 C17.758,134.68 16.887,133.811 16.887,132.741 C16.887,131.668 17.758,130.801 18.829,130.801 C18.829,130.801 17.758,130.801 18.829,130.801 Z M26.59,141.418 L18.829,141.418 C17.758,141.418 16.887,140.549 16.887,139.478 C16.887,138.407 17.758,137.541 18.829,137.541 L26.59,137.541 C27.661,137.541 28.53,138.407 28.53,139.478 C28.53,140.549 27.661,141.418 26.59,141.418 Z M26.59,148.158 L18.829,148.158 C17.758,148.158 16.887,147.29 16.887,146.217 C16.887,145.147 17.758,144.28 18.829,144.28 L26.59,144.28 C27.661,144.28 28.53,145.147 28.53,146.217 C28.53,147.29 27.661,148.158 26.59,148.158 Z M26.59,148.158" id="grid-list--lp-blue" fill="#206FAC" sketch:type="MSShapeGroup"></path>
        <path d="M13.127,95.522 L5.428,95.522 C4.362,95.522 3.5,94.661 3.5,93.599 L3.5,85.925 C3.5,84.864 4.362,84 5.428,84 L13.127,84 C14.192,84 15.053,84.864 15.053,85.925 L15.053,93.599 C15.053,94.661 14.192,95.522 13.127,95.522 L13.127,95.522 L13.127,95.522 L13.127,95.522 Z M13.127,109 L5.428,109 C4.362,109 3.5,108.139 3.5,107.076 L3.5,99.404 C3.5,98.34 4.362,97.48 5.428,97.48 L13.127,97.48 C14.192,97.48 15.053,98.34 15.053,99.404 L15.053,107.076 C15.053,108.139 14.192,109 13.127,109 Z M26.59,87.941 L18.829,87.941 C17.758,87.941 16.887,87.073 16.887,86.001 C16.887,84.93 17.758,84.063 18.829,84.063 L26.59,84.063 C27.661,84.063 28.53,84.93 28.53,86.001 C28.53,87.073 27.661,87.941 26.59,87.941 Z M18.829,90.801 L26.59,90.801 C27.661,90.801 28.53,91.668 28.53,92.741 C28.53,93.811 27.661,94.68 26.59,94.68 L18.829,94.68 C17.758,94.68 16.887,93.811 16.887,92.741 C16.887,91.668 17.758,90.801 18.829,90.801 C18.829,90.801 17.758,90.801 18.829,90.801 Z M26.59,101.418 L18.829,101.418 C17.758,101.418 16.887,100.549 16.887,99.478 C16.887,98.407 17.758,97.541 18.829,97.541 L26.59,97.541 C27.661,97.541 28.53,98.407 28.53,99.478 C28.53,100.549 27.661,101.418 26.59,101.418 Z M26.59,108.158 L18.829,108.158 C17.758,108.158 16.887,107.29 16.887,106.217 C16.887,105.147 17.758,104.28 18.829,104.28 L26.59,104.28 C27.661,104.28 28.53,105.147 28.53,106.217 C28.53,107.29 27.661,108.158 26.59,108.158 Z M26.59,108.158" id="grid-list--white" fill="#FFFFFF" sketch:type="MSShapeGroup"></path>
        <path d="M13.127,55.522 L5.428,55.522 C4.362,55.522 3.5,54.661 3.5,53.599 L3.5,45.925 C3.5,44.864 4.362,44 5.428,44 L13.127,44 C14.192,44 15.053,44.864 15.053,45.925 L15.053,53.599 C15.053,54.661 14.192,55.522 13.127,55.522 L13.127,55.522 L13.127,55.522 L13.127,55.522 Z M13.127,69 L5.428,69 C4.362,69 3.5,68.139 3.5,67.076 L3.5,59.404 C3.5,58.34 4.362,57.48 5.428,57.48 L13.127,57.48 C14.192,57.48 15.053,58.34 15.053,59.404 L15.053,67.076 C15.053,68.139 14.192,69 13.127,69 Z M26.59,47.941 L18.829,47.941 C17.758,47.941 16.887,47.073 16.887,46.001 C16.887,44.93 17.758,44.063 18.829,44.063 L26.59,44.063 C27.661,44.063 28.53,44.93 28.53,46.001 C28.53,47.073 27.661,47.941 26.59,47.941 Z M18.829,50.801 L26.59,50.801 C27.661,50.801 28.53,51.668 28.53,52.741 C28.53,53.811 27.661,54.68 26.59,54.68 L18.829,54.68 C17.758,54.68 16.887,53.811 16.887,52.741 C16.887,51.668 17.758,50.801 18.829,50.801 C18.829,50.801 17.758,50.801 18.829,50.801 Z M26.59,61.418 L18.829,61.418 C17.758,61.418 16.887,60.549 16.887,59.478 C16.887,58.407 17.758,57.541 18.829,57.541 L26.59,57.541 C27.661,57.541 28.53,58.407 28.53,59.478 C28.53,60.549 27.661,61.418 26.59,61.418 Z M26.59,68.158 L18.829,68.158 C17.758,68.158 16.887,67.29 16.887,66.217 C16.887,65.147 17.758,64.28 18.829,64.28 L26.59,64.28 C27.661,64.28 28.53,65.147 28.53,66.217 C28.53,67.29 27.661,68.158 26.59,68.158 Z M26.59,68.158" id="grid-list--body-grey" fill="#67737B" sketch:type="MSShapeGroup"></path>
        <path d="M13.127,15.522 L5.428,15.522 C4.362,15.522 3.5,14.661 3.5,13.599 L3.5,5.925 C3.5,4.864 4.362,4 5.428,4 L13.127,4 C14.192,4 15.053,4.864 15.053,5.925 L15.053,13.599 C15.053,14.661 14.192,15.522 13.127,15.522 L13.127,15.522 L13.127,15.522 L13.127,15.522 Z M13.127,29 L5.428,29 C4.362,29 3.5,28.139 3.5,27.076 L3.5,19.404 C3.5,18.34 4.362,17.48 5.428,17.48 L13.127,17.48 C14.192,17.48 15.053,18.34 15.053,19.404 L15.053,27.076 C15.053,28.139 14.192,29 13.127,29 Z M26.59,7.941 L18.829,7.941 C17.758,7.941 16.887,7.073 16.887,6.001 C16.887,4.93 17.758,4.063 18.829,4.063 L26.59,4.063 C27.661,4.063 28.53,4.93 28.53,6.001 C28.53,7.073 27.661,7.941 26.59,7.941 Z M18.829,10.801 L26.59,10.801 C27.661,10.801 28.53,11.668 28.53,12.741 C28.53,13.811 27.661,14.68 26.59,14.68 L18.829,14.68 C17.758,14.68 16.887,13.811 16.887,12.741 C16.887,11.668 17.758,10.801 18.829,10.801 C18.829,10.801 17.758,10.801 18.829,10.801 Z M26.59,21.418 L18.829,21.418 C17.758,21.418 16.887,20.549 16.887,19.478 C16.887,18.407 17.758,17.541 18.829,17.541 L26.59,17.541 C27.661,17.541 28.53,18.407 28.53,19.478 C28.53,20.549 27.661,21.418 26.59,21.418 Z M26.59,28.158 L18.829,28.158 C17.758,28.158 16.887,27.29 16.887,26.217 C16.887,25.147 17.758,24.28 18.829,24.28 L26.59,24.28 C27.661,24.28 28.53,25.147 28.53,26.217 C28.53,27.29 27.661,28.158 26.59,28.158 Z M26.59,28.158" id="grid-list--title-grey" fill="#3A434E" sketch:type="MSShapeGroup"></path>
    </g>
</svg>
